X: 521
T: The Devil's Hop
R: slip-jig, triple hornpipe
B: "Preston's Twenty Four Country Dances for the Year 1804", Tho. Preston, ed. p.221
F: http://imslp.org/wiki/24_Country_Dances_for_the_Year_1804_(Preston_(publisher),_Thomas)
M: 9/8
L: 1/8
K: C
|:\
c2c c2e gec | a2g f2e ded | c2c c2e gec | G2G GAB c3 :|
|:\
e3 c2d edc | f3 d2e fed | e3 c2d edc | g2e d2e c3 :|
% - - - - - - - - - - - - - - - - - - - - - - - - -
%%begintext align
%% 1st & 2d Cu. hands across, back again, lead
%% down the middle up again & cast off.
%%endtext

%%sep 1 1 500
